X:58
T:Flowers of Edinburgh
N:page 19
N: heptatonic
R: Reel
S:Athole p 144, via EF
M:4/4
L:1/8
K:G
GE|"G"D2 DE G2 GA|BGBd cBAG|\
"D"FGFE DEFG|AFdF E2GE|"G"D2 DE G2 GA|BGBd efge|
 "D"dcBA GFGA| [1"G"B2G2 G2:| [2 "G"B2G2G2ef|:\
"G"g2gf gbag|"Bm"f2fe fagf|"Em"edef gfed|
 B2e2 efge|"G"dBGB d2d2|"C"edef gage|\
"D"dcBA GFGA| [1"G"B2G2 G2 ef:| [2"G"B2G2 G4|
